X:570
T: "Die Nonne"
N: Z1250
O: Europa, Mitteleuropa, Deutschland, Niederrhein
R: Liebes - Lied
M: 4/4
L: 1/16
K: F
C4 | A4B2A2G4c4 | F2EFG2F2E2D2
C4 | F4F4G4A4 | B4c2B2A4z2
A2 | A4B2A2G4c4 | d4c2=B2c4z2
c2 | c2B2A2G2F4F4 | G4c2B2A4z2
F2 | G4c2B2A4

